svgs/duotone/face-eyes-xmarks.svg

<svg xmlns="http://www.w3.org/2000/svg" viewBox="0 0 512 512"><!--! Font Awesome Pro 6.4.2 by @fontawesome - https://fontawesome.com License - https://fontawesome.com/license (Commercial License) Copyright 2023 Fonticons, Inc. --><path class="fa-primary" style="fill:var(--fa-primary-color,inherit);opacity:var(--fa-primary-opacity,1);" d="M196.7 132.7c6.2-6.2 16.4-6.2 22.6 0s6.2 16.4 0 22.6L182.6 192l36.7 36.7c6.2 6.2 6.2 16.4 0 22.6s-16.4 6.2-22.6 0L160 214.6l-36.7 36.7c-6.2 6.2-16.4 6.2-22.6 0s-6.2-16.4 0-22.6L137.4 192l-36.7-36.7c-6.2-6.2-6.2-16.4 0-22.6s16.4-6.2 22.6 0L160 169.4l36.7-36.7zm96 0c6.2-6.2 16.4-6.2 22.6 0L352 169.4l36.7-36.7c6.2-6.2 16.4-6.2 22.6 0s6.2 16.4 0 22.6L374.6 192l36.7 36.7c6.2 6.2 6.2 16.4 0 22.6s-16.4 6.2-22.6 0L352 214.6l-36.7 36.7c-6.2 6.2-16.4 6.2-22.6 0s-6.2-16.4 0-22.6L329.4 192l-36.7-36.7c-6.2-6.2-6.2-16.4 0-22.6z"/><path class="fa-secondary" style="fill:var(--fa-secondary-color,inherit);opacity:var(--fa-secondary-opacity,.4);" d="M256 512A256 256 0 1 0 256 0a256 256 0 1 0 0 512zM123.3 132.7L160 169.4l36.7-36.7c6.2-6.2 16.4-6.2 22.6 0s6.2 16.4 0 22.6L182.6 192l36.7 36.7c6.2 6.2 6.2 16.4 0 22.6s-16.4 6.2-22.6 0L160 214.6l-36.7 36.7c-6.2 6.2-16.4 6.2-22.6 0s-6.2-16.4 0-22.6L137.4 192l-36.7-36.7c-6.2-6.2-6.2-16.4 0-22.6s16.4-6.2 22.6 0zm192 0L352 169.4l36.7-36.7c6.2-6.2 16.4-6.2 22.6 0s6.2 16.4 0 22.6L374.6 192l36.7 36.7c6.2 6.2 6.2 16.4 0 22.6s-16.4 6.2-22.6 0L352 214.6l-36.7 36.7c-6.2 6.2-16.4 6.2-22.6 0s-6.2-16.4 0-22.6L329.4 192l-36.7-36.7c-6.2-6.2-6.2-16.4 0-22.6s16.4-6.2 22.6 0zM256 304c44.2 0 80 35.8 80 80c0 8.8-7.2 16-16 16H192c-8.8 0-16-7.2-16-16c0-44.2 35.8-80 80-80z"/></svg>

<svg xmlns="http://www.w3.org/2000/svg" viewBox="0 0 512 512"><!--! Font Awesome Pro 6.1.1 by @fontawesome - https://fontawesome.com License - https://fontawesome.com/license (Commercial License) Copyright 2022 Fonticons, Inc. --><defs><style>.fa-secondary{opacity:.4}</style></defs><path class="fa-primary" d="M196.7 132.7C202.9 126.4 213.1 126.4 219.3 132.7C225.6 138.9 225.6 149.1 219.3 155.3L182.6 192L219.3 228.7C225.6 234.9 225.6 245.1 219.3 251.3C213.1 257.6 202.9 257.6 196.7 251.3L160 214.6L123.3 251.3C117.1 257.6 106.9 257.6 100.7 251.3C94.44 245.1 94.44 234.9 100.7 228.7L137.4 192L100.7 155.3C94.44 149.1 94.44 138.9 100.7 132.7C106.9 126.4 117.1 126.4 123.3 132.7L160 169.4L196.7 132.7zM292.7 132.7C298.9 126.4 309.1 126.4 315.3 132.7L352 169.4L388.7 132.7C394.9 126.4 405.1 126.4 411.3 132.7C417.6 138.9 417.6 149.1 411.3 155.3L374.6 192L411.3 228.7C417.6 234.9 417.6 245.1 411.3 251.3C405.1 257.6 394.9 257.6 388.7 251.3L352 214.6L315.3 251.3C309.1 257.6 298.9 257.6 292.7 251.3C286.4 245.1 286.4 234.9 292.7 228.7L329.4 192L292.7 155.3C286.4 149.1 286.4 138.9 292.7 132.7z"/><path class="fa-secondary" d="M0 256C0 114.6 114.6 0 256 0C397.4 0 512 114.6 512 256C512 397.4 397.4 512 256 512C114.6 512 0 397.4 0 256zM123.3 132.7C117.1 126.4 106.9 126.4 100.7 132.7C94.44 138.9 94.44 149.1 100.7 155.3L137.4 192L100.7 228.7C94.44 234.9 94.44 245.1 100.7 251.3C106.9 257.6 117.1 257.6 123.3 251.3L160 214.6L196.7 251.3C202.9 257.6 213.1 257.6 219.3 251.3C225.6 245.1 225.6 234.9 219.3 228.7L182.6 192L219.3 155.3C225.6 149.1 225.6 138.9 219.3 132.7C213.1 126.4 202.9 126.4 196.7 132.7L160 169.4L123.3 132.7zM315.3 132.7C309.1 126.4 298.9 126.4 292.7 132.7C286.4 138.9 286.4 149.1 292.7 155.3L329.4 192L292.7 228.7C286.4 234.9 286.4 245.1 292.7 251.3C298.9 257.6 309.1 257.6 315.3 251.3L352 214.6L388.7 251.3C394.9 257.6 405.1 257.6 411.3 251.3C417.6 245.1 417.6 234.9 411.3 228.7L374.6 192L411.3 155.3C417.6 149.1 417.6 138.9 411.3 132.7C405.1 126.4 394.9 126.4 388.7 132.7L352 169.4L315.3 132.7zM256 304C211.8 304 176 339.8 176 384C176 392.8 183.2 400 192 400H320C328.8 400 336 392.8 336 384C336 339.8 300.2 304 256 304z"/></svg>
